web/public/images/logo.svg

<svg viewBox="0 0 39 42" fill="none" xmlns="http://www.w3.org/2000/svg">
<path fill-rule="evenodd" clip-rule="evenodd" d="M10.4814 6.07243L18.6366 11.6391C18.8206 11.7617 19.0356 11.8288 19.2563 11.8326C19.4773 11.831 19.6928 11.7637 19.876 11.6391L28.0374 6.0537C28.3545 5.82665 28.5294 5.44815 28.4976 5.05762C28.4658 4.66709 28.2321 4.32232 27.8825 4.1503L19.7272 0.11258C19.4179 -0.0375265 19.0575 -0.0375265 18.7481 0.11258L10.6177 4.1503C10.2618 4.32324 10.025 4.67468 9.99683 5.0716C9.96867 5.46853 10.1535 5.8503 10.4814 6.07243ZM22.0264 13.3865C22.027 13.7557 22.2077 14.1009 22.5097 14.3101L29.0475 18.7785C29.466 19.067 30.026 19.031 30.4047 18.6911L35.889 13.7859C36.1334 13.5675 36.2691 13.2513 36.2595 12.9224C36.25 12.5935 36.0961 12.2858 35.8394 12.0822L30.603 7.89471C30.2223 7.59234 29.6914 7.57216 29.2892 7.84479L22.5097 12.4816C22.213 12.687 22.033 13.024 22.0264 13.3865ZM5.76549 19.4649C6.02972 19.7023 6.16556 20.0524 6.13111 20.4073C6.09678 20.7642 5.89064 21.0814 5.57958 21.256L1.67549 23.5962C1.27973 23.8328 0.780044 23.7987 0.419608 23.5105C0.0591727 23.2224 -0.0871399 22.74 0.0518789 22.2982L1.49577 17.755C1.60904 17.395 1.89615 17.1176 2.258 17.0186C2.61958 16.9133 3.00948 17.0056 3.2867 17.262L5.76549 19.4649ZM26.9405 19.9392L19.8822 15.1089C19.5071 14.8565 19.0179 14.8565 18.6428 15.1089L11.5844 19.9392C11.3037 20.1335 11.1259 20.4458 11.1011 20.7879C11.0828 21.1325 11.2193 21.467 11.4729 21.6991L18.525 28.0084C18.7284 28.1898 18.9908 28.2897 19.2625 28.2892C19.534 28.2891 19.7963 28.1893 19.9999 28.0084L27.0521 21.6991C27.3064 21.468 27.4412 21.1321 27.4177 20.7879C27.398 20.4458 27.2217 20.1322 26.9405 19.9392ZM8.11413 18.6911L2.63601 13.7859C2.38952 13.562 2.2535 13.2401 2.26419 12.906C2.27015 12.5767 2.42255 12.2674 2.67939 12.0635L7.91583 7.85102C8.2991 7.54952 8.83113 7.5294 9.23578 7.8011L16.0091 12.4379C16.3234 12.6441 16.513 12.9962 16.513 13.374C16.513 13.7518 16.3234 14.104 16.0091 14.3101L9.47747 18.7784C9.05639 19.0657 8.49565 19.0298 8.11413 18.6911ZM36.2422 25.7368L30.6649 22.398C30.2507 22.1484 29.7235 22.199 29.3635 22.5229L22.5469 28.6075C22.2593 28.8643 22.1243 29.2527 22.1899 29.6341C22.2556 30.0154 22.5125 30.3354 22.8691 30.4797L32.3257 34.3115C32.4554 34.3654 32.5944 34.393 32.7347 34.3926C33.1736 34.394 33.572 34.1347 33.751 33.7311L36.6822 27.1659C36.9207 26.6464 36.7308 26.0293 36.2422 25.7368ZM37.0168 17.755L38.4607 22.2982H38.4483C38.5551 22.638 38.4944 23.0088 38.285 23.2961C38.0756 23.5835 37.7426 23.7529 37.3886 23.7523C37.1901 23.7529 36.9951 23.699 36.8247 23.5963L32.9144 21.256C32.6097 21.0778 32.4108 20.7609 32.3815 20.4073C32.3449 20.0521 32.4811 19.7011 32.7471 19.4649L35.2259 17.2557C35.5059 17.0048 35.8929 16.9132 36.2546 17.0123C36.6162 17.1156 36.9023 17.3945 37.0168 17.755ZM16.3313 29.631C16.398 29.2512 16.2643 28.8638 15.9781 28.6075L9.16143 22.5229C8.80149 22.199 8.27425 22.1484 7.86007 22.398L2.28279 25.7368C1.79989 26.0306 1.60883 26.6399 1.83661 27.1597L4.77398 33.7249C5.01733 34.2723 5.6465 34.5285 6.19928 34.3053L15.6497 30.4735C16.0064 30.3304 16.2642 30.0117 16.3313 29.631ZM19.6777 31.5032L27.2628 34.5736C27.6337 34.7323 27.8899 35.0811 27.9321 35.4847C27.9801 35.8934 27.7986 36.295 27.4611 36.5269L19.8698 41.8003C19.6879 41.9281 19.4719 41.9977 19.2501 42C19.0285 41.9966 18.8129 41.9271 18.6304 41.8003L11.0453 36.5269C10.7066 36.2956 10.5229 35.8944 10.5682 35.4847C10.6188 35.0769 10.8842 34.7285 11.2622 34.5736L18.8473 31.5032C19.114 31.3968 19.411 31.3968 19.6777 31.5032Z" fill="#BF4722"/>
</svg>

<svg fill="none" viewBox="0 0 39 42" xmlns="http://www.w3.org/2000/svg"><path clip-rule="evenodd" d="m10.481 6.072 8.156 5.567c.184.123.399.19.62.194.22-.002.436-.07.619-.194l8.161-5.585a1.114 1.114 0 0 0-.154-1.904L19.727.113a1.12 1.12 0 0 0-.979 0l-8.13 4.037a1.113 1.113 0 0 0-.136 1.922zm11.545 7.314c.001.37.182.715.484.924l6.538 4.468c.418.289.978.253 1.357-.087l5.484-4.905a1.114 1.114 0 0 0-.05-1.704l-5.236-4.187a1.11 1.11 0 0 0-1.314-.05l-6.78 4.637a1.125 1.125 0 0 0-.483.905zm-16.26 6.079c.264.237.4.587.365.942-.034.357-.24.674-.551.849l-3.905 2.34A1.103 1.103 0 0 1 .42 23.51a1.122 1.122 0 0 1-.368-1.212l1.444-4.543c.113-.36.4-.637.762-.736a1.073 1.073 0 0 1 1.029.243zm21.175.474-7.059-4.83a1.109 1.109 0 0 0-1.24 0l-7.058 4.83c-.28.194-.458.507-.483.849-.018.345.118.679.372.911l7.052 6.31a1.105 1.105 0 0 0 1.475 0l7.052-6.31c.254-.231.39-.567.366-.911a1.106 1.106 0 0 0-.477-.849zM8.114 18.691l-5.478-4.905a1.14 1.14 0 0 1-.372-.88c.006-.33.159-.639.415-.843l5.237-4.212a1.121 1.121 0 0 1 1.32-.05l6.773 4.637a1.12 1.12 0 0 1 0 1.872l-6.532 4.468a1.11 1.11 0 0 1-1.363-.087zm28.128 7.046-5.577-3.339a1.097 1.097 0 0 0-1.301.125l-6.817 6.085a1.122 1.122 0 0 0 .322 1.872l9.457 3.832a1.109 1.109 0 0 0 1.425-.58l2.931-6.566a1.121 1.121 0 0 0-.44-1.43zm.775-7.982 1.444 4.543h-.013c.107.34.046.71-.163.998a1.107 1.107 0 0 1-1.46.3l-3.91-2.34a1.086 1.086 0 0 1-.533-.849c-.037-.355.1-.706.365-.942l2.479-2.21c.28-.25.667-.342 1.029-.243.361.104.647.382.762.743zM16.33 29.631a1.115 1.115 0 0 0-.353-1.024l-6.817-6.084a1.097 1.097 0 0 0-1.3-.125l-5.578 3.339a1.134 1.134 0 0 0-.446 1.423l2.937 6.565c.243.547.873.803 1.425.58l9.45-3.832c.357-.143.615-.461.682-.842zm3.347 1.872 7.585 3.07c.37.16.627.508.67.912.047.408-.134.81-.472 1.042L19.87 41.8a1.098 1.098 0 0 1-.62.2 1.116 1.116 0 0 1-.62-.2l-7.585-5.273a1.114 1.114 0 0 1-.477-1.042c.05-.408.316-.757.694-.911l7.585-3.07a1.12 1.12 0 0 1 .83 0z" fill="#bf4722" fill-rule="evenodd"/></svg>
